X: 23396
T: Leona Beaton
R: jig
M: 6/8
K: Aminor
E|ABA c2d|e3 ABc|B3 G3|GBc dBG|
ABA c2d|e3 efg|a2f g2f|ecA A2:|
|:a3 A3|Ace agf|g3 G3|GBd gfg|
a3 A3|Ace agf|gfe dBG|A3 A3:|

